.local/share/icons/Gruvbox-Plus-Dark/actions/16/view-financial-account-cash.svg

<svg xmlns="http://www.w3.org/2000/svg" width="16" height="16" version="1.1">
 <defs>
  <style id="current-color-scheme" type="text/css">
   .ColorScheme-Text { color:#565656; } .ColorScheme-Highlight { color:#4285f4; } .ColorScheme-NeutralText { color:#ff9800; } .ColorScheme-PositiveText { color:#4caf50; } .ColorScheme-NegativeText { color:#f44336; }
  </style>
 </defs>
 <path style="fill:currentColor" class="ColorScheme-Text" d="M 0,3 V 13 H 16 V 3 Z M 3,4 H 13 V 5 H 14 V 6 H 15 V 10 H 14 V 11 H 13 V 12 H 3 V 11 H 2 V 10 H 1 V 6 H 2 V 5 H 3 Z M 4,5 V 6 H 3 V 7 H 2 V 9 H 3 V 10 H 4 V 11 H 12 V 10 H 13 V 9 H 14 V 7 H 13 V 6 H 12 V 5 Z M 8,6 C 9.104569,6 10,6.895431 10,8 10,9.104569 9.104569,10 8,10 6.8954305,10 6,9.104569 6,8 6,6.895431 6.8954305,6 8,6 Z M 7.974609,7 C 7.432265,7.013775 6.9998251,7.457481 7,8 7,8.552285 7.447715,9 8,9 8.552284,9 9,8.552285 9,8 9,7.447716 8.552284,7 8,7 7.99186,6.9999 7.982749,6.9999 7.974609,7 Z"/>
</svg>

<svg width="16" height="16" version="1.1" xmlns="http://www.w3.org/2000/svg">
  <defs>
    <style id="current-color-scheme" type="text/css">.ColorScheme-Text { color:#ebdbb2; } .ColorScheme-Highlight { color:#458588; }</style>
  </defs>
  <path class="ColorScheme-Text" d="m0 3v10h16v-10zm3 1h10v1h1v1h1v4h-1v1h-1v1h-10v-1h-1v-1h-1v-4h1v-1h1zm1 1v1h-1v1h-1v2h1v1h1v1h8v-1h1v-1h1v-2h-1v-1h-1v-1zm4 1c1.105 0 2 0.8954 2 2s-0.8954 2-2 2c-1.105 0-2-0.8954-2-2s0.8954-2 2-2zm-0.02539 1c-0.5423 0.01378-0.9748 0.4575-0.9746 1 0 0.5523 0.4477 1 1 1s1-0.4477 1-1-0.4477-1-1-1c-0.00814-1e-4 -0.01725-1e-4 -0.02539 0z" fill="currentColor"/>
</svg>
